Sources/FrostedUI/Resources/Icons.xcassets/converge20.imageset/converge-20.svg

<svg width="20" height="20" viewBox="0 0 20 20" fill="none" xmlns="http://www.w3.org/2000/svg" data-fui-icon="true">
  <path
    d="M3.28125 1.75C4.47022 1.75 5.47305 2.54092 5.7959 3.625H7.22949C8.44791 3.62511 9.55674 4.32801 10.0771 5.42969L11.8809 9.25H16.5371L14.9238 7.54688C14.6393 7.24616 14.6525 6.7711 14.9531 6.48633C15.2538 6.20178 15.7289 6.21504 16.0137 6.51562L18.8262 9.48438C19.0998 9.77355 19.0998 10.2264 18.8262 10.5156L16.0137 13.4844C15.7289 13.785 15.2538 13.7982 14.9531 13.5137C14.6525 13.2289 14.6393 12.7538 14.9238 12.4531L16.5371 10.75H11.8809L10.0771 14.5703C9.55674 15.672 8.44791 16.3749 7.22949 16.375H5.7959C5.47305 17.4591 4.47022 18.25 3.28125 18.25C1.8315 18.25 0.65625 17.0747 0.65625 15.625C0.65625 14.1753 1.8315 13 3.28125 13C4.47022 13 5.47305 13.7909 5.7959 14.875H7.22949C7.86773 14.8749 8.44914 14.5068 8.72168 13.9297L10.5771 10L8.72168 6.07031C8.44914 5.49317 7.86773 5.12511 7.22949 5.125H5.7959C5.47305 6.20908 4.47022 7 3.28125 7C1.8315 7 0.65625 5.82475 0.65625 4.375C0.65625 2.92525 1.8315 1.75 3.28125 1.75ZM3.28125 14.5C2.65993 14.5 2.15625 15.0037 2.15625 15.625C2.15625 16.2463 2.65993 16.75 3.28125 16.75C3.90257 16.75 4.40625 16.2463 4.40625 15.625C4.40625 15.0037 3.90257 14.5 3.28125 14.5ZM3.28125 3.25C2.65993 3.25 2.15625 3.75368 2.15625 4.375C2.15625 4.99632 2.65993 5.5 3.28125 5.5C3.90257 5.5 4.40625 4.99632 4.40625 4.375C4.40625 3.75368 3.90257 3.25 3.28125 3.25Z"
    fill="currentColor"
  />
</svg>

<svg xmlns="http://www.w3.org/2000/svg" width="20" height="20" fill="none" data-fui-icon="true" viewBox="0 0 20 20"><path fill="currentColor" d="M3.281 1.75c1.19 0 2.192.79 2.515 1.875h1.433a3.15 3.15 0 0 1 2.848 1.805l1.804 3.82h4.656l-1.613-1.703a.75.75 0 0 1 1.09-1.031l2.812 2.968a.75.75 0 0 1 0 1.032l-2.812 2.968a.75.75 0 0 1-1.09-1.03l1.613-1.704h-4.656l-1.804 3.82a3.15 3.15 0 0 1-2.848 1.805H5.796a2.625 2.625 0 1 1 0-1.5h1.433a1.65 1.65 0 0 0 1.493-.945L10.577 10 8.722 6.07a1.65 1.65 0 0 0-1.493-.945H5.796A2.625 2.625 0 1 1 3.28 1.75m0 12.75a1.125 1.125 0 1 0 0 2.25 1.125 1.125 0 0 0 0-2.25m0-11.25a1.125 1.125 0 1 0 0 2.25 1.125 1.125 0 0 0 0-2.25"/></svg>
